!!!!SEGMENT: pl-wumfc--n57164-cim_anonim--walec-wyjety-z-potpourri.krn
!!!cenid: 18xx:4124
!!!COM: Anonim
!!!COM-rismID: pe30004985
!!!CDT:
!!!CNT:
!!!OTL: Walec wyjęty z Potpourri
!!!PDT:
!!!AGN:
!!!YEC: Copyright 2022 Narodowy Instytut Fryderyka Chopina (https://polishscores.org)
!!!YEM: License CC-BY-4.0 (https://creativecommons.org/licenses/by/4.0)
!!!SMS-siglum: PL-Wumfc
!!!SMS-shelfmark: N57164 cim.
!!!SMS-shelfwork: W
!!!SMS-variant:
!!!SMS-altvar:
!!!NIFC-rismSourceID: 1001202639
!!!NIFC-rismChildID: 1001202639
!!!NIFC-islandoraID: pl-wumfc:24631
!!!URL-pdf-islandora: https://repozytorium.nifc.pl/islandora/object/pl-wumfc%3A24631/datastream/PDF/view
!!!URL-scan: https://polish.musicsources.pl/pl/lokalizacje/galeria/druki-muzyczne/12611/1 @EN{Scan on Polish Music Sources Website} @PL{Skany w portalu Dziedzictwo Muzyki Polskiej w otwartym dostępie}
!!!IIIF:
!!!ONB-nifc:
!!!AIN: 1 piano
!!!key: F
**kern	**kern
*part1	*part1
*staff2	*staff1
*I"Valec	*I"Valec
*>[A,A,B,B,C,D,D,C,A,B]	*>[A,A,B,B,C,D,D,C,A,B]
*>A	*>A
*Ipiano	*Ipiano
*ICklav	*ICklav
*clefF4	*clefG2
*k[b-]	*k[b-]
*F:	*F:
*M3/8	*M3/8
=1	=1
*^	*
4.F/	8F\L	(16a\LL
.	.	16cc\JJ)
.	8c 8A\	8r
.	8cJ 8A\	8r
=2	=2	=2
4.F/	8F\L	(16b-\LL
.	.	16dd\JJ)
.	8d 8B-\	8r
.	8dJ 8B-\	8r
=3	=3	=3
4.F/	8F\L	(16a\LL
.	.	16cc\JJ)
.	8c 8A\	8r
.	8cJ 8A\	8r
=4	=4	=4
4.F/	8F\L	(16a\LL
.	.	16cc\)
.	8c 8A\	16ff'\
.	.	16gg'\J
.	8cJ 8A\	8aa\J
!!LO:LB:g=original
=5	=5	=5
4.C/	8C\L	(16gg\LL
.	.	16bb-\JJ)
.	8c 8G 8E\	8r
.	8cJ 8G 8E\	8r
=6	=6	=6
4.C/	8C\L	(16ee\LL
.	.	16gg\JJ)
.	8c 8G 8E\	8r
.	8cJ 8G 8E\	8r
=7	=7	=7
4.F/	8F\L	(16ff\LL
.	.	16aa\JJ)
.	8c 8A\	8r
.	8cJ 8A\	8r
=8	=8	=8
4.F/	8F\L	(16a\LL
.	.	16cc\)
.	8c 8A\	16cc'\
.	.	16cc'\
.	8cJ 8A\	(16dd\
.	.	16cc\JJ)
=9	=9	=9
4.F/	8F\L	(16a\LL
.	.	16cc\JJ)
.	8c 8A\	8r
.	8cJ 8A\	8r
!!LO:LB:g=original
=10	=10	=10
4.F/	8F\L	(16b-\LL
.	.	16dd\JJ)
.	8d 8B-\	8r
.	8dJ 8B-\	8r
=11	=11	=11
4.F/	8F\L	(16a\LL
.	.	16cc\JJ)
.	8c 8A\	8r
.	8cJ 8A\	8r
=12	=12	=12
4.F/	8F\L	(16a\LL
.	.	16cc\)
.	8c 8A\	16ff'\
.	.	16gg'\J
.	8cJ 8A\	8aa'\J
*v	*v	*
=13	=13
(8eL 8c\	(16gg\LL
.	16ccc\JJ)
8G\)	8r
8eJ 8c'\	(16cc\LL
.	16ee\JJ)
=14	=14
(8fL 8Bn\	(16dd\LL
.	16gg\JJ)
8G\)	8r
8fJ 8B\	(16g\LL
.	16bn\JJ)
!!LO:LB:g=original
=15	=15
8C\L	16cc\LL
.	16g\
8e 8c 8G\	16cc\
.	16ee\
8eJ 8c 8G\	16gg\
.	16g\JJ
=16	=16
4e 4c 4G\	4cc\
8r	8r
=17:|!|:	=17:|!|:
*>B	*>B
8C\L	4ccc\
8e 8c 8B- 8G\	.
8eJ 8c 8B- 8G\	16ccc\LL
.	16ccc\JJ
=18	=18
8C\L	8ccc'\L
8e 8c 8B- 8G\	(16ddd\L
.	16ccc\)
8eJ 8c 8B- 8G\	(16ddd\
.	16ccc\JJ)
=19	=19
8C\L	8ccc\L
8e 8c 8B- 8G\	(16eee\L
.	16ddd\)
8eJ 8c 8B- 8G\	(16ddd\
.	16ccc\JJ)
!!LO:LB:g=original
=20	=20
8C\L	(16ccc\LL
.	16bb-\)
8e 8c 8B- 8G\	(16bb-\
.	16aa\)
8eJ 8c 8B- 8G\	(16aa\
.	16gg\JJ)
=21	=21
8F\L	(16ff\LL
.	16gg\
8f 8c 8A\	16ff\
.	16ee\
8fJ 8c 8A\	16ff\)
.	16aa'\JJ
=22	=22
8F\L	(4ddd 4dd\
8f 8c 8A\	.
8fJ 8c 8A\	8ccc 8cc\)
=23	=23
8F\L	(16ff\LL
.	16gg\
8f 8c 8A\	16ff\
.	16ee\)
8fJ 8c 8A\	16ff\
.	16aa\JJ
=24	=24
8F\L	4ddd 4dd\
8f 8c 8A\	.
8fJ 8c 8A\	8ccc 8cc\
!!LO:PB:g=original
=25	=25
8C\L	4ccc\
8e 8c 8B- 8G\	.
8eJ 8c 8B- 8G\	(16ddd\LL
.	16ccc\JJ)
=26	=26
8C\L	(16ddd\LL
.	16ccc\)
8e 8c 8B- 8G\	(16ddd\
.	16ccc\)
8eJ 8c 8B- 8G\	(16ddd\
.	16ccc\JJ)
=27	=27
8C\L	8ccc'\L
8e 8c 8B- 8G\	(16eee\L
.	16ddd\)
8eJ 8c 8B- 8G\	(16ddd\
.	16ccc\JJ)
=28	=28
8C\L	(16ccc\LL
.	16bb-\)
8e 8c 8B- 8G\	(16bb-\
.	16aa\)
8eJ 8c 8B- 8G\	(16aa\
.	16gg\JJ)
=29	=29
8F\L	(16ff\LL
.	16gg\
8c 8A\	16ff\
.	16ee\
8cJ 8A\	16ff\)
.	16aa\JJ
=30	=30
8C\L	(4ddd 4dd\
8c 8G 8E\	.
8cJ 8G 8E\	8ccc 8cc\)
=31	=31
8AL 8F\	16gg\LL
.	16ff\
8C\	16ee\
.	16ff\
8B-J 8E\	16aa\
.	16gg\JJ
=32	=32
4A 4F\	4ff\
8r	8r
!!LO:LB:g=original
=33:|!	=33:|!
*>C	*>C
*k[b-e-]	*k[b-e-]
*clefG2	*
!	!LO:TX:i:a:t=Trio
4f/	4ff\
16f/LL	16ff\LL
16f/JJ	16ff\JJ
=34	=34
4f/	4ff\
16f/LL	16ff\LL
16f/JJ	16ff\JJ
=35	=35
8f/L	8ff\L
16f/L	16ff\L
16f/J	16ff\J
8f/J	8ff\J
=36	=36
8f/L	8ff\L
8f/	8ff\
8f/J	8ff\J
!!LO:LB:g=original
=37!|:	=37!|:
*>D	*>D
*clefF4	*
8FL 8E- 8C\	4gg 4g\
8FF\	.
8FJ 8E- 8C\	8ff 8f\
=38	=38
8FL 8E- 8C\	8ee-L 8e-\
8FF\	8dd 8d\
8FJ 8E- 8C\	8ccJ 8c\
=39	=39
8FL 8D 8BB-\	4.b- 4.B-\
8FF\	.
8FJ 8D 8BB-\	.
=40	=40
.	8qcc/
8FL 8D 8BB-\	8b-L 8B-/
8FF\	8a 8A/
8FJ 8D 8BB-\	8b-J 8B-/
=41	=41
8FL 8E- 8AA\	4.cc 4.c/
8FF\	.
8FJ 8E- 8AA\	.
=42	=42
.	8qdd/
8FL 8E- 8AA\	8ccL 8c/
8FF\	8bn 8Bn/
8FJ 8E- 8AA\	8ccJ 8c/
!!LO:LB:g=original
=43	=43
8FL 8D 8BB-\	4.ee- 4.e-\
8FF\	.
8FJ 8D 8BB-\	.
=44	=44
8FL 8D 8BB-\	4dd 4d\
8FF\	.
8FJ 8D 8BB-\	8r
=45	=45
*^	*
4.FF#/	8FF#X\L	4.dd 4.d\
.	8D 8C 8AA\	.
.	8DJ 8C 8AA\	.
=46	=46	=46
4.FF#/	8FF#X\L	8ee-L 8e-\
.	8D 8C 8AA\	8dd 8d\
.	8DJ 8C 8AA\	8ccJ 8c\
=47	=47	=47
4.GG/	8GG\L	8b-L 8B-\
.	8D 8BB-\	8dd 8d\
.	8DJ 8BB-\	8ggJ 8g\
=48	=48	=48
4.EEn/	8EE\L	8bb-L 8b-\
.	8C#X 8BB-\	8aa 8a\
.	8C#J 8BB-\	8ggJ 8g\
*v	*v	*
!!LO:LB:g=original
=49	=49
8DL 8BB-\	8ffL 8f\
8FF\	8ee- 8e-\
8DJ 8BB-\	8ddJ 8d\
=50	=50
8E-L 8AA\	8ccL 8c/
8FF\	8dd 8d/
8E-J 8AA\	8ccJ 8c/
=51	=51
8E-L 8AA\	4.cc 4.c/
8FF\	.
8E-J 8AA\	.
=52	=52
4D 4BB-\	4b- 4B-/
!	!LO:TX:Bi:b:t=V&colon; D&colon; C&colon;
8r	8r
=:|!	=:|!
*-	*-
!!!system-decoration: {(p1)}
!!!RDF**kern: > = above
!!!RDF**kern: < = below
!!!ENC: Berenika Jozajtis
!!!END: 2022-08-24
!!!ENC: Kamil Watkowski
!!!END: 2022-09-30
